X:224
T:Three Dukes - children at Menhenniot
%%VWML:SBG-1-2-819-0
F:http://www.vwml.org/record/SBG/1/2/819
Z:Original Sibelius transcriptions by M. & S. Graebe
M:6/8
I:linebreak $
K:F
V:1 treble nm="P1"
V:1
 E | F2 E F2 A | c3 A2 A | B3 G2 G | A3 F2 C | F2 E F2 A | c3 A2 A |$ B2 B c2 E | F4 | A | %10
 c2 c A2 A | c2 c A2 A | Bc B A2 G |$ F2 E F2 C | F2 E F2 A | c2 c A2 A | B2 B G2 G | A2 A F2 x | %18
